src/icons/logo.svg

<?xml version="1.0" encoding="UTF-8" standalone="no"?>
<svg
   width="24"
   height="24"
   viewBox="0 0 24 24"
   fill="none"
   stroke="currentColor"
   stroke-width="2"
   stroke-linecap="round"
   stroke-linejoin="round"
   class="lucide lucide-squircle-icon lucide-squircle"
   version="1.1"
   id="svg1"
   sodipodi:docname="made-by-dom-dev.svg"
   xml:space="preserve"
   inkscape:version="1.4.2 (ebf0e940, 2025-05-08)"
   xmlns:inkscape="http://www.inkscape.org/namespaces/inkscape"
   xmlns:sodipodi="http://sodipodi.sourceforge.net/DTD/sodipodi-0.dtd"
   xmlns="http://www.w3.org/2000/svg"
   xmlns:svg="http://www.w3.org/2000/svg"><defs
     id="defs1" /><sodipodi:namedview
     id="namedview1"
     pagecolor="#ffffff"
     bordercolor="#000000"
     borderopacity="0.25"
     inkscape:showpageshadow="true"
     inkscape:pageopacity="0.0"
     inkscape:pagecheckerboard="true"
     inkscape:deskcolor="#d1d1d1"
     showgrid="true"
     showborder="true"
     inkscape:antialias-rendering="true"
     inkscape:zoom="36.428978"
     inkscape:cx="11.59791"
     inkscape:cy="11.529283"
     inkscape:window-width="1736"
     inkscape:window-height="1077"
     inkscape:window-x="48"
     inkscape:window-y="44"
     inkscape:window-maximized="1"
     inkscape:current-layer="svg1"><inkscape:grid
       id="grid1"
       units="px"
       originx="0"
       originy="0"
       spacingx="1"
       spacingy="1"
       empcolor="#0099e5"
       empopacity="0.30196078"
       color="#0099e5"
       opacity="0.14901961"
       empspacing="5"
       enabled="true"
       visible="true" /></sodipodi:namedview><path
     id="path1"
     style="fill:#ffffff;fill-opacity:1;stroke-width:1.99937008;stroke-dasharray:none;stroke:#ffffff;stroke-opacity:1"
     inkscape:label="squircle"
     d="M 12 3 C 4.8 3 3 4.8 3 12 C 3 18.844508 4.6267162 20.809015 10.972656 20.986328 L 8.3183594 14.162109 L 8.3183594 14.160156 C 7.6477952 12.475435 8.1651463 10.467666 9.3164062 9.3164062 C 9.8922495 8.7405628 10.682146 8.3222451 11.539062 8.1328125 C 11.967204 8.0381664 12.412487 8.0011426 12.855469 8.0292969 C 13.29845 8.0574512 13.739135 8.1507774 14.160156 8.3183594 L 14.162109 8.3183594 L 20.986328 10.972656 C 20.809015 4.6267162 18.844508 3 12 3 z " /><path
     id="path5"
     style="opacity:1;baseline-shift:baseline;display:inline;overflow:visible;vector-effect:none;fill:#ffffff;stroke:none;enable-background:accumulate;stop-color:#000000;stop-opacity:1"
     d="M 12.611328 11.005859 C 12.463376 10.996117 12.315572 11.009335 12.173828 11.041016 C 11.89034 11.104376 11.630667 11.244333 11.4375 11.4375 C 11.051167 11.823833 10.87683 12.477185 11.105469 13.050781 L 14.601562 22.042969 A 1.0001 1.0001 0 0 0 14.603516 22.044922 C 14.842264 22.655924 15.478636 23.018137 16.052734 22.998047 C 16.626833 22.977957 17.236188 22.571511 17.431641 21.945312 A 1.0001 1.0001 0 0 0 17.431641 21.943359 L 18.5 18.501953 A 1.0001 1.0001 0 0 0 18.5 18.5 L 21.943359 17.431641 A 1.0001 1.0001 0 0 0 21.945312 17.431641 C 22.57151 17.236188 22.977956 16.626833 22.998047 16.052734 C 23.018137 15.478636 22.655924 14.842264 22.044922 14.603516 A 1.0001 1.0001 0 0 0 22.042969 14.601562 L 13.050781 11.105469 C 12.907382 11.048309 12.759281 11.015602 12.611328 11.005859 z "
     inkscape:label="pointer" /></svg>

<svg viewBox="0 0 24 24" fill="none" stroke="currentColor" stroke-width="2" stroke-linecap="round" stroke-linejoin="round" class="lucide lucide-squircle-icon lucide-squircle" xml:space="preserve" xmlns="http://www.w3.org/2000/svg">
    <path style="fill:#fff;fill-opacity:1;stroke-width:1.99937008;stroke-dasharray:none;stroke:#fff;stroke-opacity:1" d="M12 3c-7.2 0-9 1.8-9 9 0 6.845 1.627 8.809 7.973 8.986l-2.655-6.824v-.002c-.67-1.685-.153-3.692.998-4.844.576-.575 1.366-.994 2.223-1.183a4.726 4.726 0 0 1 1.316-.104c.443.028.884.122 1.305.29h.002l6.824 2.654C20.81 4.627 18.845 3 12 3z"/>
    <path style="opacity:1;baseline-shift:baseline;display:inline;overflow:visible;vector-effect:none;fill:#fff;stroke:none;enable-background:accumulate;stop-color:#000;stop-opacity:1" d="M12.611 11.006a1.544 1.544 0 0 0-.437.035 1.513 1.513 0 0 0-.736.396 1.532 1.532 0 0 0-.333 1.614l3.497 8.992a1 1 0 0 0 .002.002c.238.61.875.973 1.449.953.574-.02 1.183-.426 1.379-1.053a1 1 0 0 0 0-.002l1.068-3.441a1 1 0 0 0 0-.002l3.443-1.068a1 1 0 0 0 .002 0c.627-.196 1.033-.805 1.053-1.38.02-.573-.342-1.21-.953-1.448a1 1 0 0 0-.002-.002l-8.992-3.497a1.441 1.441 0 0 0-.44-.1z" stroke="none"/>
</svg>
